svgs/regular/hanukiah.svg

<svg xmlns="http://www.w3.org/2000/svg" viewBox="0 0 640 512"><!--! Font Awesome Pro 6.6.0 by @fontawesome - https://fontawesome.com License - https://fontawesome.com/license (Commercial License) Copyright 2024 Fonticons, Inc. --><path d="M296 56c0-19.4 13.1-43.9 18.2-52.7C315.4 1.2 317.6 0 320 0s4.6 1.2 5.8 3.3C330.9 12.1 344 36.6 344 56c0 13.3-10.7 24-24 24s-24-10.7-24-24zM0 104C0 84.6 13.1 60.1 18.2 51.3C19.4 49.2 21.6 48 24 48s4.6 1.2 5.8 3.3C34.9 60.1 48 84.6 48 104c0 13.3-10.7 24-24 24s-24-10.7-24-24zM106.2 51.3c1.2-2.1 3.4-3.3 5.8-3.3s4.6 1.2 5.8 3.3C122.9 60.1 136 84.6 136 104c0 13.3-10.7 24-24 24s-24-10.7-24-24c0-19.4 13.1-43.9 18.2-52.7zM152 104c0-19.4 13.1-43.9 18.2-52.7c1.2-2.1 3.4-3.3 5.8-3.3s4.6 1.2 5.8 3.3C186.9 60.1 200 84.6 200 104c0 13.3-10.7 24-24 24s-24-10.7-24-24zm82.2-52.7c1.2-2.1 3.4-3.3 5.8-3.3s4.6 1.2 5.8 3.3C250.9 60.1 264 84.6 264 104c0 13.3-10.7 24-24 24s-24-10.7-24-24c0-19.4 13.1-43.9 18.2-52.7zM376 104c0-19.4 13.1-43.9 18.2-52.7c1.2-2.1 3.4-3.3 5.8-3.3s4.6 1.2 5.8 3.3C410.9 60.1 424 84.6 424 104c0 13.3-10.7 24-24 24s-24-10.7-24-24zm82.2-52.7c1.2-2.1 3.4-3.3 5.8-3.3s4.6 1.2 5.8 3.3C474.9 60.1 488 84.6 488 104c0 13.3-10.7 24-24 24s-24-10.7-24-24c0-19.4 13.1-43.9 18.2-52.7zM504 104c0-19.4 13.1-43.9 18.2-52.7c1.2-2.1 3.4-3.3 5.8-3.3s4.6 1.2 5.8 3.3C538.9 60.1 552 84.6 552 104c0 13.3-10.7 24-24 24s-24-10.7-24-24zM610.2 51.3c1.2-2.1 3.4-3.3 5.8-3.3s4.6 1.2 5.8 3.3C626.9 60.1 640 84.6 640 104c0 13.3-10.7 24-24 24s-24-10.7-24-24c0-19.4 13.1-43.9 18.2-52.7zM320 112c13.3 0 24 10.7 24 24l0 200 208 0c22.1 0 40-17.9 40-40l0-112c0-13.3 10.7-24 24-24s24 10.7 24 24l0 112c0 48.6-39.4 88-88 88l-208 0 0 80 152 0c13.3 0 24 10.7 24 24s-10.7 24-24 24l-176 0-176 0c-13.3 0-24-10.7-24-24s10.7-24 24-24l152 0 0-80L88 384c-48.6 0-88-39.4-88-88L0 184c0-13.3 10.7-24 24-24s24 10.7 24 24l0 112c0 22.1 17.9 40 40 40l208 0 0-200c0-13.3 10.7-24 24-24zM112 160c8.8 0 16 7.2 16 16l0 112 0 16-32 0 0-16 0-112c0-8.8 7.2-16 16-16zm64 0c8.8 0 16 7.2 16 16l0 112 0 16-32 0 0-16 0-112c0-8.8 7.2-16 16-16zm64 0c8.8 0 16 7.2 16 16l0 112 0 16-32 0 0-16 0-112c0-8.8 7.2-16 16-16zm160 0c8.8 0 16 7.2 16 16l0 112 0 16-32 0 0-16 0-112c0-8.8 7.2-16 16-16zm64 0c8.8 0 16 7.2 16 16l0 112 0 16-32 0 0-16 0-112c0-8.8 7.2-16 16-16zm64 0c8.8 0 16 7.2 16 16l0 112 0 16-32 0 0-16 0-112c0-8.8 7.2-16 16-16z"/></svg>

<svg xmlns="http://www.w3.org/2000/svg" viewBox="0 0 640 512"><!--! Font Awesome Pro 6.4.0 by @fontawesome - https://fontawesome.com License - https://fontawesome.com/license (Commercial License) Copyright 2023 Fonticons, Inc. --><path d="M296 56c0-19.4 13.1-43.9 18.2-52.7C315.4 1.2 317.6 0 320 0s4.6 1.2 5.8 3.3C330.9 12.1 344 36.6 344 56c0 13.3-10.7 24-24 24s-24-10.7-24-24zM0 104C0 84.6 13.1 60.1 18.2 51.3C19.4 49.2 21.6 48 24 48s4.6 1.2 5.8 3.3C34.9 60.1 48 84.6 48 104c0 13.3-10.7 24-24 24s-24-10.7-24-24zM106.2 51.3c1.2-2.1 3.4-3.3 5.8-3.3s4.6 1.2 5.8 3.3C122.9 60.1 136 84.6 136 104c0 13.3-10.7 24-24 24s-24-10.7-24-24c0-19.4 13.1-43.9 18.2-52.7zM152 104c0-19.4 13.1-43.9 18.2-52.7c1.2-2.1 3.4-3.3 5.8-3.3s4.6 1.2 5.8 3.3C186.9 60.1 200 84.6 200 104c0 13.3-10.7 24-24 24s-24-10.7-24-24zm82.2-52.7c1.2-2.1 3.4-3.3 5.8-3.3s4.6 1.2 5.8 3.3C250.9 60.1 264 84.6 264 104c0 13.3-10.7 24-24 24s-24-10.7-24-24c0-19.4 13.1-43.9 18.2-52.7zM376 104c0-19.4 13.1-43.9 18.2-52.7c1.2-2.1 3.4-3.3 5.8-3.3s4.6 1.2 5.8 3.3C410.9 60.1 424 84.6 424 104c0 13.3-10.7 24-24 24s-24-10.7-24-24zm82.2-52.7c1.2-2.1 3.4-3.3 5.8-3.3s4.6 1.2 5.8 3.3C474.9 60.1 488 84.6 488 104c0 13.3-10.7 24-24 24s-24-10.7-24-24c0-19.4 13.1-43.9 18.2-52.7zM504 104c0-19.4 13.1-43.9 18.2-52.7c1.2-2.1 3.4-3.3 5.8-3.3s4.6 1.2 5.8 3.3C538.9 60.1 552 84.6 552 104c0 13.3-10.7 24-24 24s-24-10.7-24-24zM610.2 51.3c1.2-2.1 3.4-3.3 5.8-3.3s4.6 1.2 5.8 3.3C626.9 60.1 640 84.6 640 104c0 13.3-10.7 24-24 24s-24-10.7-24-24c0-19.4 13.1-43.9 18.2-52.7zM320 112c13.3 0 24 10.7 24 24V336H552c22.1 0 40-17.9 40-40V184c0-13.3 10.7-24 24-24s24 10.7 24 24V296c0 48.6-39.4 88-88 88H344v80H496c13.3 0 24 10.7 24 24s-10.7 24-24 24H320 144c-13.3 0-24-10.7-24-24s10.7-24 24-24H296V384H88c-48.6 0-88-39.4-88-88V184c0-13.3 10.7-24 24-24s24 10.7 24 24V296c0 22.1 17.9 40 40 40H296V136c0-13.3 10.7-24 24-24zM112 160c8.8 0 16 7.2 16 16V288v16H96V288 176c0-8.8 7.2-16 16-16zm64 0c8.8 0 16 7.2 16 16V288v16H160V288 176c0-8.8 7.2-16 16-16zm64 0c8.8 0 16 7.2 16 16V288v16H224V288 176c0-8.8 7.2-16 16-16zm160 0c8.8 0 16 7.2 16 16V288v16H384V288 176c0-8.8 7.2-16 16-16zm64 0c8.8 0 16 7.2 16 16V288v16H448V288 176c0-8.8 7.2-16 16-16zm64 0c8.8 0 16 7.2 16 16V288v16H512V288 176c0-8.8 7.2-16 16-16z"/></svg>
